.cache/img/_logos/logo-diane.svg

<svg xmlns="http://www.w3.org/2000/svg" width="250" height="110" viewBox="0 0 250 110"><path d="M245.17 20.22C241 15.48 234 11.52 224.51 8.47 210.2 3.86 173.18.1 142.9 0h-1.2c-14.79.05-27.41.93-37.51 2.64C66.07 9.06 39.4 18.15 22.64 30.41 15 36 9.38 42.25 5.61 49.41A49.49 49.49 0 0 0 .07 70.07a38 38 0 0 0 2.29 15.58 37.28 37.28 0 0 0 7.89 12.75 36.28 36.28 0 0 0 11.81 8.38 35.61 35.61 0 0 0 14.56 3.09 40.44 40.44 0 0 0 21.84-6.75c10.65-6.86 24.78-12 43.21-15.79 14.84-3 32.67-5.13 54.49-6.42 4-.23 7.93-.35 11.75-.35a187.05 187.05 0 0 1 36.52 3.71c5.28 1 9.45 1.73 13.14 1.73a21.23 21.23 0 0 0 3.87-.33c3.94-.74 7.52-3.79 11.28-9.58a104.47 104.47 0 0 0 7.63-14.89 238 238 0 0 0 9.07-25c1.58-5.52.02-11.2-4.25-15.98zm-1.59 14.31c-1.74 6.24-14 43.44-23.26 45.18a14.78 14.78 0 0 1-2.75.23c-8.64 0-23.15-5.44-49.66-5.44-3.78 0-7.81.11-12.1.36C118 77.1 79.54 82.33 55.18 98a34.09 34.09 0 0 1-18.56 5.79c-17.38 0-31.58-15-30.5-33.39 1.45-24.69 19.11-48.31 99.07-61.79 10.72-1.8 23.95-2.55 37.7-2.55 32.05 0 67 4.05 79.76 8.17 18.35 5.9 22.68 14.05 20.93 20.3z" fill="#fff"/><path d="M217 58.11c-6.77.12-6.18 8.28-1.71 10.38s6.76-1.62 7.23-3.14.1-7.35-5.52-7.24zm.3 7a1.53 1.53 0 1 1 1.52-1.53 1.52 1.52 0 0 1-1.54 1.58zM55.39 37.62c-14-5.89-36.27 8.91-39.3 14.63l2.07 1.6 16.39 38v3.81s19.88-6.52 28.31-20 6.53-32.15-7.47-38.04zm-10.31 4.84a1.53 1.53 0 1 1-.72 2 1.52 1.52 0 0 1 .72-2zM25.19 53.83a1.53 1.53 0 1 1 1.52-1.52 1.52 1.52 0 0 1-1.52 1.52zm3 9.8a1.53 1.53 0 1 1 1.53-1.52 1.53 1.53 0 0 1-1.48 1.52zm4.2 9.72a1.53 1.53 0 1 1 .79-2 1.52 1.52 0 0 1-.74 2zm-.46-26a1.53 1.53 0 1 1 2 .72 1.52 1.52 0 0 1-1.93-.72zm4.35 35a1.53 1.53 0 1 1-1.21-2.8 1.53 1.53 0 0 1 1.21 2.8zm3.42 7.94a1.53 1.53 0 1 1 .8-2 1.53 1.53 0 0 1-.75 2.03zm9.3-6.83a1.53 1.53 0 1 1 .8-2 1.53 1.53 0 0 1-.8 2zm-6.17-6c-1.8.86-9-24.84-9-24.84s6.57-6.19 15.14 0 1.73 18.72-6.17 24.81zm11-27.75a1.53 1.53 0 1 1 2.76-1.31 1.53 1.53 0 0 1-2.76 1.31zm2.87 23.67a1.53 1.53 0 1 1 .79-2 1.52 1.52 0 0 1-.82 1.97zM59.9 60a1.53 1.53 0 1 1 .8-2 1.54 1.54 0 0 1-.8 2zM180 21.09c-.19 3.33-1.9 36.17-2.57 38.45a9.88 9.88 0 0 1-2.86 4.09s20.66 1.72 22.85 2.29a9.77 9.77 0 0 1 3.61 1.8L202.61 55a5.54 5.54 0 0 1-3.9.86c-2.48-.29-10.14-2.1-10.14-2.1l.53-5.76s10.18.95 11.51 1 2.57 2.19 2.57 2.19l2-13.71a5.42 5.42 0 0 1-4.57 1.38c-2.85-.43-10.75-2.14-10.75-2.14l.76-5.61S201 31.08 205.18 34l2.38-12.09s-5.14-3.71-28.93-4.85c0 .03 1.52.7 1.37 4.03zm18.62 22a1.52 1.52 0 1 1-.38 2.12 1.52 1.52 0 0 1 .34-2.14zm-6.68-.76a1.53 1.53 0 1 1-1.53 1.53 1.53 1.53 0 0 1 1.49-1.55zm9.24-17.94a1.53 1.53 0 1 1-.38 2.12 1.52 1.52 0 0 1 .34-2.14zM192.55 23a1.53 1.53 0 1 1-.38 2.12 1.54 1.54 0 0 1 .38-2.12zm4.5 37.08a1.53 1.53 0 1 1-1.53 1.53 1.53 1.53 0 0 1 1.53-1.53zm-7.53-1.53a1.53 1.53 0 1 1-1.52 1.53 1.54 1.54 0 0 1 1.52-1.53zm-5.37-36.17a1.53 1.53 0 1 1-.37 2.13 1.53 1.53 0 0 1 .37-2.13zM184 33a1.53 1.53 0 1 1-1.53 1.53A1.52 1.52 0 0 1 184 33zm-.49 9.79a1.53 1.53 0 1 1-1.51 1.53 1.54 1.54 0 0 1 1.5-1.53zm-.86 8a1.53 1.53 0 1 1-1.53 1.52 1.52 1.52 0 0 1 1.52-1.57zm-.65 7.32a1.53 1.53 0 1 1-1.52 1.53 1.52 1.52 0 0 1 1.52-1.53zM86.59 67.06c-.67-2.19-7.81-36.74-8.28-39.79s1-4.09 1-4.09L62.6 28.89s2.95 1.52 3.24 4c.19 1.65 8 33.31 8.28 36.83S73 74.86 73 74.86l15.51-4.44a8.15 8.15 0 0 1-1.92-3.36zM70.13 32.25a1.53 1.53 0 1 1 2 .73 1.53 1.53 0 0 1-2-.73zm2.51 10a1.53 1.53 0 1 1 2 .73 1.52 1.52 0 0 1-2-.69zm2 9.74a1.52 1.52 0 1 1 2 .72 1.51 1.51 0 0 1-2.01-.71zm2 8.73a1.53 1.53 0 1 1 2 .72 1.53 1.53 0 0 1-2.04-.68zm3.87 9.13a1.53 1.53 0 1 1 .72-2 1.54 1.54 0 0 1-.76 2.04zM112.67 21.28c-.76-3.05 1.71-6.28 1.71-6.28l-23.6 4.75s2.85 1.91 3 4.38S92.39 51.16 92.2 57s-2.76 12.66-2.76 12.66l15.23-2.38a7.91 7.91 0 0 1-2.38-3.52c-.76-2.29-.85-9.14-.85-9.14l8.47-1.52a40 40 0 0 1 1.42 8.75c0 3.72-2 4.15-2 4.15L125 64.3a72.21 72.21 0 0 1-3.43-8.09c-1.48-4.38-8.14-31.89-8.9-34.93zM95.06 65.15a1.52 1.52 0 1 1 1.63-1.41 1.52 1.52 0 0 1-1.63 1.41zm1.12-11.72A1.52 1.52 0 1 1 97.82 52a1.52 1.52 0 0 1-1.64 1.43zm1.17-8.21a1.53 1.53 0 1 1 .73-2 1.53 1.53 0 0 1-.73 2zM98 34.4a1.53 1.53 0 1 1 .72-2 1.52 1.52 0 0 1-.72 2zm.68-10.56a1.53 1.53 0 1 1-1.31-2.76 1.53 1.53 0 0 1 1.31 2.76zm8.57-4.49a1.52 1.52 0 0 1 1.31 2.75 1.52 1.52 0 1 1-1.31-2.75zm-1.74 31.71a1.52 1.52 0 1 1 1.63-1.41 1.52 1.52 0 0 1-1.62 1.41zm-3.61-5.89l1.71-15.8 4.86 14.85zm7.74-12.87a1.52 1.52 0 1 1 1.63-1.41 1.53 1.53 0 0 1-1.62 1.41zm1 7.22a1.53 1.53 0 1 1 1.42 1.63 1.53 1.53 0 0 1-1.41-1.63zm3.42 9.61a1.52 1.52 0 1 1 1.64-1.41 1.52 1.52 0 0 1-1.63 1.41zm2.75 12.49a1.52 1.52 0 1 1 1.63-1.41 1.52 1.52 0 0 1-1.62 1.41zM216.79 25.08l-.85 28.18s5.8-1.53 8.47 2.38c0 0 8.85-22.18 10.28-24.08A28.17 28.17 0 0 1 237 28.8a28.51 28.51 0 0 0-20.21-3.72zm5.06 4.17a1.53 1.53 0 1 1-1.53 1.53 1.53 1.53 0 0 1 1.53-1.53zm0 19.69a1.53 1.53 0 1 1 1.52-1.53 1.52 1.52 0 0 1-1.52 1.53zm1.52-8.48a1.53 1.53 0 1 1 1.53-1.53 1.52 1.52 0 0 1-1.53 1.53zm6.46-6.63a1.53 1.53 0 1 1 1.53-1.52 1.53 1.53 0 0 1-1.53 1.52zM153.69 16.61c.28 1.34 0 17.9 0 17.9-3.71-.19-12.09-16.66-12.47-18.28s.67-2 .67-2H125a11.08 11.08 0 0 1 2.71 4.77c.57 2.67 1.52 38.07 1.52 40.84a4.23 4.23 0 0 1-2.19 3.8h16.27A14.54 14.54 0 0 1 141.6 60c-.86-2.48-1-17.14-1-17.14s10.38 17.8 10.85 19a1.27 1.27 0 0 1-.66 1.71h17s-.19-41.4-.38-44.07a4.61 4.61 0 0 1 1.33-3.9c-2.76-1.43-16.28-1.43-16.28-1.43a5.9 5.9 0 0 1 1.23 2.44zm-19.14 2.59a1.53 1.53 0 1 1-1.63 1.41 1.52 1.52 0 0 1 1.63-1.41zm0 13.25a1.52 1.52 0 1 1-1.63 1.41 1.52 1.52 0 0 1 1.63-1.41zm0 12.45a1.53 1.53 0 1 1-1.63 1.41 1.53 1.53 0 0 1 1.63-1.41zm-.05 15.67A1.53 1.53 0 1 1 136 59a1.51 1.51 0 0 1-1.5 1.57zM142.09 33a1.53 1.53 0 1 1 1.63-1.41 1.53 1.53 0 0 1-1.63 1.41zm5.59 8.85a1.53 1.53 0 1 1 1.63-1.41 1.53 1.53 0 0 1-1.63 1.43zm12.44-23a1.53 1.53 0 1 1-.38 2.13 1.54 1.54 0 0 1 .38-2.08zM159.74 31a1.53 1.53 0 1 1-.38 2.13 1.53 1.53 0 0 1 .38-2.08zm0 13.48a1.53 1.53 0 1 1 1.75 2.5 1.53 1.53 0 1 1-1.75-2.5zm0 11.74a1.53 1.53 0 1 1-.38 2.12 1.53 1.53 0 0 1 .38-2.07zM155.19 49a1.53 1.53 0 1 1-1.41-1.63 1.52 1.52 0 0 1 1.41 1.68z" fill="#fff"/></svg>

<svg xmlns="http://www.w3.org/2000/svg" width="250" height="110" viewBox="0 0 250 110"><path d="M245.17,20.22C241,15.48,234,11.52,224.51,8.47,210.2,3.86,173.18.1,142.9,0h-1.2c-14.79.05-27.41.93-37.51,2.64C66.07,9.06,39.4,18.15,22.64,30.41,15,36,9.38,42.25,5.61,49.41A49.49,49.49,0,0,0,.07,70.07,38,38,0,0,0,2.36,85.65,37.28,37.28,0,0,0,10.25,98.4a36.28,36.28,0,0,0,11.81,8.38,35.61,35.61,0,0,0,14.56,3.09,40.44,40.44,0,0,0,21.84-6.75c10.65-6.86,24.78-12,43.21-15.79,14.84-3,32.67-5.13,54.49-6.42,4-.23,7.93-.35,11.75-.35a187.05,187.05,0,0,1,36.52,3.71c5.28,1,9.45,1.73,13.14,1.73a21.23,21.23,0,0,0,3.87-.33c3.94-.74,7.52-3.79,11.28-9.58a104.47,104.47,0,0,0,7.63-14.89,238,238,0,0,0,9.07-25C251,30.68,249.44,25,245.17,20.22Zm-1.59,14.31c-1.74,6.24-14,43.44-23.26,45.18a14.78,14.78,0,0,1-2.75.23c-8.64,0-23.15-5.44-49.66-5.44-3.78,0-7.81.11-12.1.36C118,77.1,79.54,82.33,55.18,98a34.09,34.09,0,0,1-18.56,5.79c-17.38,0-31.58-15-30.5-33.39C7.57,45.71,25.23,22.09,105.19,8.61c10.72-1.8,23.95-2.55,37.7-2.55,32.05,0,67,4.05,79.76,8.17C241,20.13,245.33,28.28,243.58,34.53Z" fill="#fff"/><path d="M217,58.11c-6.77.12-6.18,8.28-1.71,10.38s6.76-1.62,7.23-3.14S222.62,58,217,58.11Zm.3,7a1.53,1.53,0,1,1,1.52-1.53A1.52,1.52,0,0,1,217.28,65.16Z" fill="#fff"/><path d="M55.39,37.62c-14-5.89-36.27,8.91-39.3,14.63l2.07,1.6,16.39,38v3.81s19.88-6.52,28.31-20S69.39,43.51,55.39,37.62ZM45.08,42.46a1.53,1.53,0,1,1-.72,2A1.52,1.52,0,0,1,45.08,42.46ZM25.19,53.83a1.53,1.53,0,1,1,1.52-1.52A1.52,1.52,0,0,1,25.19,53.83Zm3,9.8a1.53,1.53,0,1,1,1.53-1.52A1.53,1.53,0,0,1,28.24,63.63Zm4.2,9.72a1.53,1.53,0,1,1,.79-2A1.52,1.52,0,0,1,32.44,73.35Zm-.46-26a1.53,1.53,0,1,1,2,.72A1.52,1.52,0,0,1,32,47.35Zm4.35,35a1.53,1.53,0,1,1-1.21-2.8,1.53,1.53,0,0,1,1.21,2.8Zm3.42,7.94a1.53,1.53,0,1,1,.8-2A1.53,1.53,0,0,1,39.75,90.32ZM49,83.46a1.53,1.53,0,1,1,.8-2A1.53,1.53,0,0,1,49,83.46Zm-6.17-6c-1.8.86-9-24.84-9-24.84s6.57-6.19,15.14,0S50.7,71.34,42.8,77.43Zm11-27.75a1.53,1.53,0,1,1,2.76-1.31,1.53,1.53,0,0,1-2.76,1.31Zm2.87,23.67a1.53,1.53,0,1,1,.79-2A1.52,1.52,0,0,1,56.67,73.35ZM59.9,60a1.53,1.53,0,1,1,.8-2A1.54,1.54,0,0,1,59.9,60Z" fill="#fff"/><path d="M180,21.09c-.19,3.33-1.9,36.17-2.57,38.45a9.88,9.88,0,0,1-2.86,4.09s20.66,1.72,22.85,2.29a9.77,9.77,0,0,1,3.61,1.8L202.61,55a5.54,5.54,0,0,1-3.9.86c-2.48-.29-10.14-2.1-10.14-2.1L189.1,48s10.18.95,11.51,1,2.57,2.19,2.57,2.19l2-13.71a5.42,5.42,0,0,1-4.57,1.38c-2.85-.43-10.75-2.14-10.75-2.14l.76-5.61S201,31.08,205.18,34l2.38-12.09s-5.14-3.71-28.93-4.85C178.63,17.09,180.15,17.76,180,21.09Zm18.62,22a1.52,1.52,0,1,1-.38,2.12A1.52,1.52,0,0,1,198.58,43.07Zm-6.68-.76a1.53,1.53,0,1,1-1.53,1.53A1.53,1.53,0,0,1,191.9,42.31Zm9.24-17.94a1.53,1.53,0,1,1-.38,2.12A1.52,1.52,0,0,1,201.14,24.37ZM192.55,23a1.53,1.53,0,1,1-.38,2.12A1.54,1.54,0,0,1,192.55,23Zm4.5,37.08a1.53,1.53,0,1,1-1.53,1.53A1.53,1.53,0,0,1,197.05,60.08Zm-7.53-1.53A1.53,1.53,0,1,1,188,60.08,1.54,1.54,0,0,1,189.52,58.55Zm-5.37-36.17a1.53,1.53,0,1,1-.37,2.13A1.53,1.53,0,0,1,184.15,22.38ZM184,33a1.53,1.53,0,1,1-1.53,1.53A1.52,1.52,0,0,1,184,33Zm-.49,9.79A1.53,1.53,0,1,1,182,44.32,1.54,1.54,0,0,1,183.5,42.79Zm-.86,8a1.53,1.53,0,1,1-1.53,1.52A1.52,1.52,0,0,1,182.64,50.74ZM182,58.11a1.53,1.53,0,1,1-1.52,1.53A1.52,1.52,0,0,1,182,58.11Z" fill="#fff"/><path d="M86.59,67.06c-.67-2.19-7.81-36.74-8.28-39.79s1-4.09,1-4.09L62.6,28.89s2.95,1.52,3.24,4c.19,1.65,8,33.31,8.28,36.83S73,74.86,73,74.86l15.51-4.44A8.15,8.15,0,0,1,86.59,67.06ZM70.13,32.25a1.53,1.53,0,1,1,2,.73A1.53,1.53,0,0,1,70.13,32.25Zm2.51,10a1.53,1.53,0,1,1,2,.73A1.52,1.52,0,0,1,72.64,42.29Zm2,9.74a1.52,1.52,0,1,1,2,.72A1.51,1.51,0,0,1,74.63,52Zm2,8.73a1.53,1.53,0,1,1,2,.72A1.53,1.53,0,0,1,76.6,60.76Zm3.87,9.13a1.53,1.53,0,1,1,.72-2A1.54,1.54,0,0,1,80.47,69.89Z" fill="#fff"/><path d="M112.67,21.28c-.76-3.05,1.71-6.28,1.71-6.28l-23.6,4.75s2.85,1.91,3,4.38S92.39,51.16,92.2,57s-2.76,12.66-2.76,12.66l15.23-2.38a7.91,7.91,0,0,1-2.38-3.52c-.76-2.29-.85-9.14-.85-9.14l8.47-1.52a40,40,0,0,1,1.42,8.75c0,3.72-2,4.15-2,4.15L125,64.3a72.21,72.21,0,0,1-3.43-8.09C120.09,51.83,113.43,24.32,112.67,21.28ZM95.06,65.15a1.52,1.52,0,1,1,1.63-1.41A1.52,1.52,0,0,1,95.06,65.15Zm1.12-11.72A1.52,1.52,0,1,1,97.82,52,1.52,1.52,0,0,1,96.18,53.43Zm1.17-8.21a1.53,1.53,0,1,1,.73-2A1.53,1.53,0,0,1,97.35,45.22ZM98,34.4a1.53,1.53,0,1,1,.72-2A1.52,1.52,0,0,1,98,34.4Zm.68-10.56a1.53,1.53,0,1,1-1.31-2.76,1.53,1.53,0,0,1,1.31,2.76Zm8.57-4.49a1.52,1.52,0,0,1,1.31,2.75,1.52,1.52,0,1,1-1.31-2.75Zm-1.74,31.71a1.52,1.52,0,1,1,1.63-1.41A1.52,1.52,0,0,1,105.52,51.06Zm-3.61-5.89,1.71-15.8,4.86,14.85Zm7.74-12.87a1.52,1.52,0,1,1,1.63-1.41A1.53,1.53,0,0,1,109.65,32.3Zm1,7.22a1.53,1.53,0,1,1,1.42,1.63A1.53,1.53,0,0,1,110.65,39.52Zm3.42,9.61a1.52,1.52,0,1,1,1.64-1.41A1.52,1.52,0,0,1,114.07,49.13Zm2.75,12.49a1.52,1.52,0,1,1,1.63-1.41A1.52,1.52,0,0,1,116.82,61.62Z" fill="#fff"/><path d="M216.79,25.08l-.85,28.18s5.8-1.53,8.47,2.38c0,0,8.85-22.18,10.28-24.08A28.17,28.17,0,0,1,237,28.8,28.51,28.51,0,0,0,216.79,25.08Zm5.06,4.17a1.53,1.53,0,1,1-1.53,1.53A1.53,1.53,0,0,1,221.85,29.25Zm0,19.69a1.53,1.53,0,1,1,1.52-1.53A1.52,1.52,0,0,1,221.85,48.94Zm1.52-8.48a1.53,1.53,0,1,1,1.53-1.53A1.52,1.52,0,0,1,223.37,40.46Zm6.46-6.63a1.53,1.53,0,1,1,1.53-1.52A1.53,1.53,0,0,1,229.83,33.83Z" fill="#fff"/><path d="M153.69,16.61c.28,1.34,0,17.9,0,17.9-3.71-.19-12.09-16.66-12.47-18.28s.67-2,.67-2H125A11.08,11.08,0,0,1,127.71,19c.57,2.67,1.52,38.07,1.52,40.84a4.23,4.23,0,0,1-2.19,3.8h16.27A14.54,14.54,0,0,1,141.6,60c-.86-2.48-1-17.14-1-17.14s10.38,17.8,10.85,19a1.27,1.27,0,0,1-.66,1.71h17s-.19-41.4-.38-44.07a4.61,4.61,0,0,1,1.33-3.9c-2.76-1.43-16.28-1.43-16.28-1.43A5.9,5.9,0,0,1,153.69,16.61ZM134.55,19.2a1.53,1.53,0,1,1-1.63,1.41A1.52,1.52,0,0,1,134.55,19.2Zm0,13.25a1.52,1.52,0,1,1-1.63,1.41A1.52,1.52,0,0,1,134.55,32.45Zm0,12.45a1.53,1.53,0,1,1-1.63,1.41A1.53,1.53,0,0,1,134.55,44.9Zm-.05,15.67A1.53,1.53,0,1,1,136,59,1.51,1.51,0,0,1,134.5,60.57ZM142.09,33a1.53,1.53,0,1,1,1.63-1.41A1.53,1.53,0,0,1,142.09,33Zm5.59,8.85a1.53,1.53,0,1,1,1.63-1.41A1.53,1.53,0,0,1,147.68,41.87Zm12.44-23a1.53,1.53,0,1,1-.38,2.13A1.54,1.54,0,0,1,160.12,18.9Zm-.38,12.15a1.53,1.53,0,1,1-.38,2.13A1.53,1.53,0,0,1,159.74,31.05Zm0,13.48a1.53,1.53,0,1,1,1.75,2.5,1.53,1.53,0,1,1-1.75-2.5Zm0,11.74a1.53,1.53,0,1,1-.38,2.12A1.53,1.53,0,0,1,159.74,56.27Zm-4.55-7.22a1.53,1.53,0,1,1-1.41-1.63A1.52,1.52,0,0,1,155.19,49.05Z" fill="#fff"/></svg>
